src/assets/wip/wip-card.svg

<svg width="720" height="500" fill="none" xmlns="http://www.w3.org/2000/svg">
  <g clip-path="url(#wip-card__clip0)">
    <path fill="#1A1A1A" d="M0 0h720v500H0z"/>
    <path d="M127.352 224h6.448l-13.156-36.4h-7.176L100.26 224h6.5l2.548-7.332h15.496l2.548 7.332zm-16.068-12.948l5.772-16.432 5.772 16.432h-11.544zm39.742-13.728c-3.536 0-6.344 1.3-8.06 4.004V198h-5.616v26h5.616v-13.936c0-5.304 2.912-7.488 6.604-7.488 3.536 0 5.824 2.08 5.824 6.032V224h5.616v-15.964c0-6.76-4.16-10.712-9.984-10.712zm41.303 27.352c7.644 0 13.728-5.98 13.728-13.676 0-7.748-6.084-13.676-13.728-13.676-7.592 0-13.728 5.928-13.728 13.676 0 7.696 6.136 13.676 13.728 13.676zm0-5.46c-4.576 0-8.112-3.484-8.112-8.216 0-4.732 3.536-8.216 8.112-8.216 4.576 0 8.112 3.484 8.112 8.216 0 4.732-3.536 8.216-8.112 8.216zm32.482-21.892c-3.536 0-6.344 1.3-8.06 4.004V198h-5.616v26h5.616v-13.936c0-5.304 2.912-7.488 6.604-7.488 3.536 0 5.824 2.08 5.824 6.032V224h5.616v-15.964c0-6.76-4.16-10.712-9.984-10.712zm36.727.676v3.848c-1.976-2.808-5.044-4.524-9.048-4.524-7.332 0-13.104 5.98-13.104 13.416s5.772 13.416 13.104 13.416c4.004 0 7.072-1.716 9.048-4.524v3.172c0 4.524-2.912 7.176-7.748 7.176-4.524 0-6.448-1.768-7.592-4.004l-4.836 2.808c2.184 4.16 6.604 6.292 12.324 6.292 6.812 0 13.364-3.9 13.364-12.272V198h-5.512zm-8.268 20.904c-4.732 0-8.268-3.484-8.268-8.164s3.536-8.164 8.268-8.164c4.732 0 8.268 3.484 8.268 8.164s-3.536 8.164-8.268 8.164zm32.598 5.772c7.644 0 13.728-5.98 13.728-13.676 0-7.748-6.084-13.676-13.728-13.676-7.592 0-13.728 5.928-13.728 13.676 0 7.696 6.136 13.676 13.728 13.676zm0-5.46c-4.576 0-8.112-3.484-8.112-8.216 0-4.732 3.536-8.216 8.112-8.216 4.576 0 8.112 3.484 8.112 8.216 0 4.732-3.536 8.216-8.112 8.216zm21.614-25.116c1.976 0 3.588-1.664 3.588-3.588a3.595 3.595 0 00-3.588-3.588 3.595 3.595 0 00-3.588 3.588c0 1.924 1.612 3.588 3.588 3.588zm-2.808 29.9h5.616v-26h-5.616v26zm25.813-26.676c-3.536 0-6.344 1.3-8.06 4.004V198h-5.616v26h5.616v-13.936c0-5.304 2.912-7.488 6.604-7.488 3.536 0 5.824 2.08 5.824 6.032V224h5.616v-15.964c0-6.76-4.16-10.712-9.984-10.712zm36.727.676v3.848c-1.976-2.808-5.044-4.524-9.048-4.524-7.332 0-13.104 5.98-13.104 13.416s5.772 13.416 13.104 13.416c4.004 0 7.072-1.716 9.048-4.524v3.172c0 4.524-2.912 7.176-7.748 7.176-4.524 0-6.448-1.768-7.592-4.004l-4.836 2.808c2.184 4.16 6.604 6.292 12.324 6.292 6.812 0 13.364-3.9 13.364-12.272V198h-5.512zm-8.268 20.904c-4.732 0-8.268-3.484-8.268-8.164s3.536-8.164 8.268-8.164c4.732 0 8.268 3.484 8.268 8.164s-3.536 8.164-8.268 8.164zm48.042-21.58c-4.056 0-7.124 1.664-9.1 4.42V198h-5.616v36.4h5.616v-14.092c1.976 2.704 5.044 4.368 9.1 4.368 7.072 0 12.948-5.928 12.948-13.676 0-7.696-5.876-13.676-12.948-13.676zm-.884 21.996c-4.68 0-8.216-3.484-8.216-8.32s3.536-8.32 8.216-8.32 8.216 3.484 8.216 8.32-3.536 8.32-8.216 8.32zm24.538-16.952V198h-5.616v26h5.616v-13.104c0-5.824 4.316-7.54 8.008-7.28v-6.084c-3.276 0-6.448 1.3-8.008 4.836zm23.211 22.308c7.644 0 13.728-5.98 13.728-13.676 0-7.748-6.084-13.676-13.728-13.676-7.592 0-13.728 5.928-13.728 13.676 0 7.696 6.136 13.676 13.728 13.676zm0-5.46c-4.576 0-8.112-3.484-8.112-8.216 0-4.732 3.536-8.216 8.112-8.216 4.576 0 8.112 3.484 8.112 8.216 0 4.732-3.536 8.216-8.112 8.216zm21.789-25.116c1.976 0 3.588-1.664 3.588-3.588a3.595 3.595 0 00-3.588-3.588 3.595 3.595 0 00-3.588 3.588c0 1.924 1.612 3.588 3.588 3.588zm-2.808 30.94c0 3.64-1.612 4.94-5.044 4.628v5.408c7.124.52 10.66-2.86 10.66-10.036V198h-5.616v27.04zm16.585-11.648h20.696c.104-.728.208-1.56.208-2.34 0-7.488-5.304-13.728-13.052-13.728-8.164 0-13.728 5.98-13.728 13.676 0 7.8 5.564 13.676 14.144 13.676 5.096 0 8.996-2.132 11.388-5.668l-4.628-2.704c-1.248 1.82-3.588 3.224-6.708 3.224-4.16 0-7.436-2.08-8.32-6.136zm-.052-4.576c.78-3.9 3.64-6.396 7.852-6.396 3.38 0 6.656 1.924 7.436 6.396h-15.288zm38.017 15.86c5.096 0 9.516-2.652 11.7-6.76l-4.836-2.756c-1.248 2.392-3.796 4.004-6.916 4.004-4.576 0-8.06-3.484-8.06-8.164s3.484-8.164 8.06-8.164c3.12 0 5.668 1.56 6.812 4.004l4.836-2.808c-2.08-4.056-6.5-6.708-11.596-6.708-7.852 0-13.728 5.928-13.728 13.676 0 7.696 5.876 13.676 13.728 13.676zm30.267-21.268V198h-6.448v-7.28l-5.616 1.664V198h-4.784v5.408h4.784v12.48c0 6.76 3.432 9.152 12.064 8.112v-5.044c-4.264.208-6.448.26-6.448-3.068v-12.48h6.448zm8.728 21.216c2.132 0 3.9-1.768 3.9-3.9 0-2.184-1.768-3.9-3.9-3.9a3.862 3.862 0 00-3.9 3.9c0 2.132 1.716 3.9 3.9 3.9zM115.3 317h2.4l-5.13-8.67a6.29 6.29 0 004.53-6.03 6.3 6.3 0 00-6.3-6.3h-8.4v21h2.1v-8.4h5.88l4.92 8.4zm-10.8-19.02h6.3c2.31 0 4.2 1.92 4.2 4.32 0 2.37-1.89 4.32-4.2 4.32h-6.3v-8.64zm22.079 3.66c-4.65 0-7.83 3.45-7.83 7.86 0 4.53 3.24 7.86 7.98 7.86 3.03 0 5.34-1.41 6.6-3.45l-1.74-1.02c-.81 1.44-2.46 2.55-4.83 2.55-3.18 0-5.55-1.89-5.97-4.95h13.17c.03-.3.06-.63.06-.93 0-4.11-2.85-7.92-7.44-7.92zm0 1.92c2.58 0 4.98 1.71 5.4 5.01h-11.19c.39-2.94 2.64-5.01 5.79-5.01zm23.489-1.56v2.94c-1.26-2.01-3.39-3.3-6.06-3.3-4.23 0-7.74 3.42-7.74 7.86s3.51 7.86 7.74 7.86c2.67 0 4.8-1.29 6.06-3.3V317h1.98v-15h-1.98zm-5.91 13.44c-3.33 0-5.91-2.61-5.91-5.94 0-3.33 2.58-5.94 5.91-5.94s5.91 2.61 5.91 5.94c0 3.33-2.58 5.94-5.91 5.94zm19.073 1.92c2.94 0 5.49-1.53 6.72-3.9l-1.65-.96c-.96 1.74-2.79 2.94-5.07 2.94-3.33 0-5.91-2.61-5.91-5.94 0-3.33 2.58-5.94 5.91-5.94 2.25 0 4.14 1.17 4.95 2.94l1.62-.93c-1.08-2.37-3.6-3.93-6.57-3.93-4.53 0-7.89 3.42-7.89 7.86s3.36 7.86 7.89 7.86zm16.582-15.72c-2.13 0-3.87.81-5.04 2.7V296h-1.98v21h1.98v-7.86c0-4.02 2.22-5.58 4.86-5.58 2.61 0 4.08 1.56 4.08 4.23V317h1.98v-9.21c0-3.75-2.22-6.15-5.88-6.15zm24.199 15.72c4.38 0 7.89-3.42 7.89-7.86s-3.51-7.86-7.89-7.86-7.89 3.42-7.89 7.86 3.51 7.86 7.89 7.86zm0-1.92c-3.33 0-5.91-2.61-5.91-5.94 0-3.33 2.58-5.94 5.91-5.94s5.91 2.61 5.91 5.94c0 3.33-2.58 5.94-5.91 5.94zM225.775 302v7.86c0 4.02-2.22 5.58-4.86 5.58-2.61 0-4.08-1.56-4.08-4.23V302h-1.98v9.21c0 3.75 2.22 6.15 5.88 6.15 2.13 0 3.87-.81 5.04-2.7V317h1.98v-15h-1.98zm14.119 1.92V302h-4.32v-4.2l-1.98.6v3.6h-3.15v1.92h3.15v9.09c0 3.6 2.25 4.59 6.3 3.99v-1.74c-2.91.12-4.32.33-4.32-2.25v-9.09h4.32zm18.3-6.36v-1.92c-4.05-.3-6.3 1.86-6.3 5.76v.6h-2.55v1.92h2.55V317h1.98v-13.08h4.32V302h-4.32v-.6c0-2.88 1.41-4.08 4.32-3.84zm8.191 19.8c4.38 0 7.89-3.42 7.89-7.86s-3.51-7.86-7.89-7.86-7.89 3.42-7.89 7.86 3.51 7.86 7.89 7.86zm0-1.92c-3.33 0-5.91-2.61-5.91-5.94 0-3.33 2.58-5.94 5.91-5.94s5.91 2.61 5.91 5.94c0 3.33-2.58 5.94-5.91 5.94zm13.183-10.95V302h-1.98v15h1.98v-8.34c0-3.72 2.34-4.98 4.74-4.98v-1.92c-1.92 0-3.69.63-4.74 2.73zm30.944-2.85c-1.92 0-3.75.87-4.86 2.73-.84-1.74-2.46-2.73-4.56-2.73-1.8 0-3.42.72-4.59 2.55V302h-1.98v15h1.98v-8.31c0-3.72 2.16-5.13 4.32-5.13 2.13 0 3.51 1.41 3.51 4.08V317h1.98v-8.31c0-3.72 1.86-5.13 4.17-5.13 2.13 0 3.66 1.41 3.66 4.08V317h1.98v-9.36c0-3.75-2.31-6-5.61-6zm16.43 15.72c4.38 0 7.89-3.42 7.89-7.86s-3.51-7.86-7.89-7.86-7.89 3.42-7.89 7.86 3.51 7.86 7.89 7.86zm0-1.92c-3.33 0-5.91-2.61-5.91-5.94 0-3.33 2.58-5.94 5.91-5.94s5.91 2.61 5.91 5.94c0 3.33-2.58 5.94-5.91 5.94zm13.183-10.95V302h-1.98v15h1.98v-8.34c0-3.72 2.34-4.98 4.74-4.98v-1.92c-1.92 0-3.69.63-4.74 2.73zm13.475-2.85c-4.65 0-7.83 3.45-7.83 7.86 0 4.53 3.24 7.86 7.98 7.86 3.03 0 5.34-1.41 6.6-3.45l-1.74-1.02c-.81 1.44-2.46 2.55-4.83 2.55-3.18 0-5.55-1.89-5.97-4.95h13.17c.03-.3.06-.63.06-.93 0-4.11-2.85-7.92-7.44-7.92zm0 1.92c2.58 0 4.98 1.71 5.4 5.01h-11.19c.39-2.94 2.64-5.01 5.79-5.01zm30.99-7.56v8.94c-1.26-2.01-3.39-3.3-6.06-3.3-4.23 0-7.74 3.42-7.74 7.86s3.51 7.86 7.74 7.86c2.67 0 4.8-1.29 6.06-3.3V317h1.98v-21h-1.98zm-5.91 19.44c-3.33 0-5.91-2.61-5.91-5.94 0-3.33 2.58-5.94 5.91-5.94s5.91 2.61 5.91 5.94c0 3.33-2.58 5.94-5.91 5.94zm19.012-13.8c-4.65 0-7.83 3.45-7.83 7.86 0 4.53 3.24 7.86 7.98 7.86 3.03 0 5.34-1.41 6.6-3.45l-1.74-1.02c-.81 1.44-2.46 2.55-4.83 2.55-3.18 0-5.55-1.89-5.97-4.95h13.17c.03-.3.06-.63.06-.93 0-4.11-2.85-7.92-7.44-7.92zm0 1.92c2.58 0 4.98 1.71 5.4 5.01h-11.19c.39-2.94 2.64-5.01 5.79-5.01zm18.1.36V302h-4.32v-4.2l-1.98.6v3.6h-3.15v1.92h3.15v9.09c0 3.6 2.25 4.59 6.3 3.99v-1.74c-2.91.12-4.32.33-4.32-2.25v-9.09h4.32zm15.292-1.92v2.94c-1.26-2.01-3.39-3.3-6.06-3.3-4.23 0-7.74 3.42-7.74 7.86s3.51 7.86 7.74 7.86c2.67 0 4.8-1.29 6.06-3.3V317h1.98v-15h-1.98zm-5.91 13.44c-3.33 0-5.91-2.61-5.91-5.94 0-3.33 2.58-5.94 5.91-5.94s5.91 2.61 5.91 5.94c0 3.33-2.58 5.94-5.91 5.94zm13.072-16.62a1.44 1.44 0 100-2.88 1.44 1.44 0 000 2.88zm-.99 18.18h1.98v-15h-1.98v15zm6.182 0h1.98v-21.9h-1.98V317zm7.742-11.07c0-1.62 1.59-2.37 3.15-2.37 1.44 0 2.97.57 3.6 2.1l1.65-.96c-.87-1.86-2.79-3.06-5.25-3.06-3 0-5.13 1.89-5.13 4.29 0 5.52 8.76 3.39 8.76 7.11 0 1.77-1.68 2.4-3.45 2.4-2.01 0-3.57-.99-4.11-2.52l-1.68.99c.75 1.92 2.79 3.45 5.79 3.45 3.21 0 5.43-1.77 5.43-4.32 0-5.52-8.76-3.39-8.76-7.11zm12.663 5.37h1.5l.45-9.3v-6h-2.4v6l.45 9.3zm.75 6c.93 0 1.65-.72 1.65-1.65 0-.93-.72-1.65-1.65-1.65-.93 0-1.65.72-1.65 1.65 0 .93.72 1.65 1.65 1.65z" fill="#fff"/>
  </g>
  <defs>
    <clipPath id="wip-card__clip0">
      <path fill="#fff" d="M0 0h720v500H0z"/>
    </clipPath>
  </defs>
</svg>

<svg width="720" height="500" viewBox="0 0 720 500" fill="none" xmlns="http://www.w3.org/2000/svg">
<g clip-path="url(#clip0)">
<rect width="720" height="500" fill="#1A1A1A"/>
<path d="M127.352 224H133.8L120.644 187.6H113.468L100.26 224H106.76L109.308 216.668H124.804L127.352 224ZM111.284 211.052L117.056 194.62L122.828 211.052H111.284ZM151.026 197.324C147.49 197.324 144.682 198.624 142.966 201.328V198H137.35V224H142.966V210.064C142.966 204.76 145.878 202.576 149.57 202.576C153.106 202.576 155.394 204.656 155.394 208.608V224H161.01V208.036C161.01 201.276 156.85 197.324 151.026 197.324ZM192.329 224.676C199.973 224.676 206.057 218.696 206.057 211C206.057 203.252 199.973 197.324 192.329 197.324C184.737 197.324 178.601 203.252 178.601 211C178.601 218.696 184.737 224.676 192.329 224.676ZM192.329 219.216C187.753 219.216 184.217 215.732 184.217 211C184.217 206.268 187.753 202.784 192.329 202.784C196.905 202.784 200.441 206.268 200.441 211C200.441 215.732 196.905 219.216 192.329 219.216ZM224.811 197.324C221.275 197.324 218.467 198.624 216.751 201.328V198H211.135V224H216.751V210.064C216.751 204.76 219.663 202.576 223.355 202.576C226.891 202.576 229.179 204.656 229.179 208.608V224H234.795V208.036C234.795 201.276 230.635 197.324 224.811 197.324ZM261.538 198V201.848C259.562 199.04 256.494 197.324 252.49 197.324C245.158 197.324 239.386 203.304 239.386 210.74C239.386 218.176 245.158 224.156 252.49 224.156C256.494 224.156 259.562 222.44 261.538 219.632V222.804C261.538 227.328 258.626 229.98 253.79 229.98C249.266 229.98 247.342 228.212 246.198 225.976L241.362 228.784C243.546 232.944 247.966 235.076 253.686 235.076C260.498 235.076 267.05 231.176 267.05 222.804V198H261.538ZM253.27 218.904C248.538 218.904 245.002 215.42 245.002 210.74C245.002 206.06 248.538 202.576 253.27 202.576C258.002 202.576 261.538 206.06 261.538 210.74C261.538 215.42 258.002 218.904 253.27 218.904ZM285.868 224.676C293.512 224.676 299.596 218.696 299.596 211C299.596 203.252 293.512 197.324 285.868 197.324C278.276 197.324 272.14 203.252 272.14 211C272.14 218.696 278.276 224.676 285.868 224.676ZM285.868 219.216C281.292 219.216 277.756 215.732 277.756 211C277.756 206.268 281.292 202.784 285.868 202.784C290.444 202.784 293.98 206.268 293.98 211C293.98 215.732 290.444 219.216 285.868 219.216ZM307.482 194.1C309.458 194.1 311.07 192.436 311.07 190.512C311.07 188.536 309.458 186.924 307.482 186.924C305.506 186.924 303.894 188.536 303.894 190.512C303.894 192.436 305.506 194.1 307.482 194.1ZM304.674 224H310.29V198H304.674V224ZM330.487 197.324C326.951 197.324 324.143 198.624 322.427 201.328V198H316.811V224H322.427V210.064C322.427 204.76 325.339 202.576 329.031 202.576C332.567 202.576 334.855 204.656 334.855 208.608V224H340.471V208.036C340.471 201.276 336.311 197.324 330.487 197.324ZM367.214 198V201.848C365.238 199.04 362.17 197.324 358.166 197.324C350.834 197.324 345.062 203.304 345.062 210.74C345.062 218.176 350.834 224.156 358.166 224.156C362.17 224.156 365.238 222.44 367.214 219.632V222.804C367.214 227.328 364.302 229.98 359.466 229.98C354.942 229.98 353.018 228.212 351.874 225.976L347.038 228.784C349.222 232.944 353.642 235.076 359.362 235.076C366.174 235.076 372.726 231.176 372.726 222.804V198H367.214ZM358.946 218.904C354.214 218.904 350.678 215.42 350.678 210.74C350.678 206.06 354.214 202.576 358.946 202.576C363.678 202.576 367.214 206.06 367.214 210.74C367.214 215.42 363.678 218.904 358.946 218.904ZM406.988 197.324C402.932 197.324 399.864 198.988 397.888 201.744V198H392.272V234.4H397.888V220.308C399.864 223.012 402.932 224.676 406.988 224.676C414.06 224.676 419.936 218.748 419.936 211C419.936 203.304 414.06 197.324 406.988 197.324ZM406.104 219.32C401.424 219.32 397.888 215.836 397.888 211C397.888 206.164 401.424 202.68 406.104 202.68C410.784 202.68 414.32 206.164 414.32 211C414.32 215.836 410.784 219.32 406.104 219.32ZM430.642 202.368V198H425.026V224H430.642V210.896C430.642 205.072 434.958 203.356 438.65 203.616V197.532C435.374 197.532 432.202 198.832 430.642 202.368ZM453.853 224.676C461.497 224.676 467.581 218.696 467.581 211C467.581 203.252 461.497 197.324 453.853 197.324C446.261 197.324 440.125 203.252 440.125 211C440.125 218.696 446.261 224.676 453.853 224.676ZM453.853 219.216C449.277 219.216 445.741 215.732 445.741 211C445.741 206.268 449.277 202.784 453.853 202.784C458.429 202.784 461.965 206.268 461.965 211C461.965 215.732 458.429 219.216 453.853 219.216ZM475.642 194.1C477.618 194.1 479.23 192.436 479.23 190.512C479.23 188.536 477.618 186.924 475.642 186.924C473.666 186.924 472.054 188.536 472.054 190.512C472.054 192.436 473.666 194.1 475.642 194.1ZM472.834 225.04C472.834 228.68 471.222 229.98 467.79 229.668V235.076C474.914 235.596 478.45 232.216 478.45 225.04V198H472.834V225.04ZM489.419 213.392H510.115C510.219 212.664 510.323 211.832 510.323 211.052C510.323 203.564 505.019 197.324 497.271 197.324C489.107 197.324 483.543 203.304 483.543 211C483.543 218.8 489.107 224.676 497.687 224.676C502.783 224.676 506.683 222.544 509.075 219.008L504.447 216.304C503.199 218.124 500.859 219.528 497.739 219.528C493.579 219.528 490.303 217.448 489.419 213.392ZM489.367 208.816C490.147 204.916 493.007 202.42 497.219 202.42C500.599 202.42 503.875 204.344 504.655 208.816H489.367ZM527.384 224.676C532.48 224.676 536.9 222.024 539.084 217.916L534.248 215.16C533 217.552 530.452 219.164 527.332 219.164C522.756 219.164 519.272 215.68 519.272 211C519.272 206.32 522.756 202.836 527.332 202.836C530.452 202.836 533 204.396 534.144 206.84L538.98 204.032C536.9 199.976 532.48 197.324 527.384 197.324C519.532 197.324 513.656 203.252 513.656 211C513.656 218.696 519.532 224.676 527.384 224.676ZM557.651 203.408V198H551.203V190.72L545.587 192.384V198H540.803V203.408H545.587V215.888C545.587 222.648 549.019 225.04 557.651 224V218.956C553.387 219.164 551.203 219.216 551.203 215.888V203.408H557.651ZM566.379 224.624C568.511 224.624 570.279 222.856 570.279 220.724C570.279 218.54 568.511 216.824 566.379 216.824C564.195 216.824 562.479 218.54 562.479 220.724C562.479 222.856 564.195 224.624 566.379 224.624ZM115.3 317H117.7L112.57 308.33C115.18 307.58 117.1 305.15 117.1 302.3C117.1 298.82 114.28 296 110.8 296H102.4V317H104.5V308.6H110.38L115.3 317ZM104.5 297.98H110.8C113.11 297.98 115 299.9 115 302.3C115 304.67 113.11 306.62 110.8 306.62H104.5V297.98ZM126.579 301.64C121.929 301.64 118.749 305.09 118.749 309.5C118.749 314.03 121.989 317.36 126.729 317.36C129.759 317.36 132.069 315.95 133.329 313.91L131.589 312.89C130.779 314.33 129.129 315.44 126.759 315.44C123.579 315.44 121.209 313.55 120.789 310.49H133.959C133.989 310.19 134.019 309.86 134.019 309.56C134.019 305.45 131.169 301.64 126.579 301.64ZM126.579 303.56C129.159 303.56 131.559 305.27 131.979 308.57H120.789C121.179 305.63 123.429 303.56 126.579 303.56ZM150.068 302V304.94C148.808 302.93 146.678 301.64 144.008 301.64C139.778 301.64 136.268 305.06 136.268 309.5C136.268 313.94 139.778 317.36 144.008 317.36C146.678 317.36 148.808 316.07 150.068 314.06V317H152.048V302H150.068ZM144.158 315.44C140.828 315.44 138.248 312.83 138.248 309.5C138.248 306.17 140.828 303.56 144.158 303.56C147.488 303.56 150.068 306.17 150.068 309.5C150.068 312.83 147.488 315.44 144.158 315.44ZM163.231 317.36C166.171 317.36 168.721 315.83 169.951 313.46L168.301 312.5C167.341 314.24 165.511 315.44 163.231 315.44C159.901 315.44 157.321 312.83 157.321 309.5C157.321 306.17 159.901 303.56 163.231 303.56C165.481 303.56 167.371 304.73 168.181 306.5L169.801 305.57C168.721 303.2 166.201 301.64 163.231 301.64C158.701 301.64 155.341 305.06 155.341 309.5C155.341 313.94 158.701 317.36 163.231 317.36ZM179.813 301.64C177.683 301.64 175.943 302.45 174.773 304.34V296H172.793V317H174.773V309.14C174.773 305.12 176.993 303.56 179.633 303.56C182.243 303.56 183.713 305.12 183.713 307.79V317H185.693V307.79C185.693 304.04 183.473 301.64 179.813 301.64ZM204.012 317.36C208.392 317.36 211.902 313.94 211.902 309.5C211.902 305.06 208.392 301.64 204.012 301.64C199.632 301.64 196.122 305.06 196.122 309.5C196.122 313.94 199.632 317.36 204.012 317.36ZM204.012 315.44C200.682 315.44 198.102 312.83 198.102 309.5C198.102 306.17 200.682 303.56 204.012 303.56C207.342 303.56 209.922 306.17 209.922 309.5C209.922 312.83 207.342 315.44 204.012 315.44ZM225.775 302V309.86C225.775 313.88 223.555 315.44 220.915 315.44C218.305 315.44 216.835 313.88 216.835 311.21V302H214.855V311.21C214.855 314.96 217.075 317.36 220.735 317.36C222.865 317.36 224.605 316.55 225.775 314.66V317H227.755V302H225.775ZM239.894 303.92V302H235.574V297.8L233.594 298.4V302H230.444V303.92H233.594V313.01C233.594 316.61 235.844 317.6 239.894 317V315.26C236.984 315.38 235.574 315.59 235.574 313.01V303.92H239.894ZM258.194 297.56V295.64C254.144 295.34 251.894 297.5 251.894 301.4V302H249.344V303.92H251.894V317H253.874V303.92H258.194V302H253.874V301.4C253.874 298.52 255.284 297.32 258.194 297.56ZM266.385 317.36C270.765 317.36 274.275 313.94 274.275 309.5C274.275 305.06 270.765 301.64 266.385 301.64C262.005 301.64 258.495 305.06 258.495 309.5C258.495 313.94 262.005 317.36 266.385 317.36ZM266.385 315.44C263.055 315.44 260.475 312.83 260.475 309.5C260.475 306.17 263.055 303.56 266.385 303.56C269.715 303.56 272.295 306.17 272.295 309.5C272.295 312.83 269.715 315.44 266.385 315.44ZM279.568 304.49V302H277.588V317H279.568V308.66C279.568 304.94 281.908 303.68 284.308 303.68V301.76C282.388 301.76 280.618 302.39 279.568 304.49ZM310.512 301.64C308.592 301.64 306.762 302.51 305.652 304.37C304.812 302.63 303.192 301.64 301.092 301.64C299.292 301.64 297.672 302.36 296.502 304.19V302H294.522V317H296.502V308.69C296.502 304.97 298.662 303.56 300.822 303.56C302.952 303.56 304.332 304.97 304.332 307.64V317H306.312V308.69C306.312 304.97 308.172 303.56 310.482 303.56C312.612 303.56 314.142 304.97 314.142 307.64V317H316.122V307.64C316.122 303.89 313.812 301.64 310.512 301.64ZM326.942 317.36C331.322 317.36 334.832 313.94 334.832 309.5C334.832 305.06 331.322 301.64 326.942 301.64C322.562 301.64 319.052 305.06 319.052 309.5C319.052 313.94 322.562 317.36 326.942 317.36ZM326.942 315.44C323.612 315.44 321.032 312.83 321.032 309.5C321.032 306.17 323.612 303.56 326.942 303.56C330.272 303.56 332.852 306.17 332.852 309.5C332.852 312.83 330.272 315.44 326.942 315.44ZM340.125 304.49V302H338.145V317H340.125V308.66C340.125 304.94 342.465 303.68 344.865 303.68V301.76C342.945 301.76 341.175 302.39 340.125 304.49ZM353.6 301.64C348.95 301.64 345.77 305.09 345.77 309.5C345.77 314.03 349.01 317.36 353.75 317.36C356.78 317.36 359.09 315.95 360.35 313.91L358.61 312.89C357.8 314.33 356.15 315.44 353.78 315.44C350.6 315.44 348.23 313.55 347.81 310.49H360.98C361.01 310.19 361.04 309.86 361.04 309.56C361.04 305.45 358.19 301.64 353.6 301.64ZM353.6 303.56C356.18 303.56 358.58 305.27 359 308.57H347.81C348.2 305.63 350.45 303.56 353.6 303.56ZM384.59 296V304.94C383.33 302.93 381.2 301.64 378.53 301.64C374.3 301.64 370.79 305.06 370.79 309.5C370.79 313.94 374.3 317.36 378.53 317.36C381.2 317.36 383.33 316.07 384.59 314.06V317H386.57V296H384.59ZM378.68 315.44C375.35 315.44 372.77 312.83 372.77 309.5C372.77 306.17 375.35 303.56 378.68 303.56C382.01 303.56 384.59 306.17 384.59 309.5C384.59 312.83 382.01 315.44 378.68 315.44ZM397.692 301.64C393.042 301.64 389.862 305.09 389.862 309.5C389.862 314.03 393.102 317.36 397.842 317.36C400.872 317.36 403.182 315.95 404.442 313.91L402.702 312.89C401.892 314.33 400.242 315.44 397.872 315.44C394.692 315.44 392.322 313.55 391.902 310.49H405.072C405.102 310.19 405.132 309.86 405.132 309.56C405.132 305.45 402.282 301.64 397.692 301.64ZM397.692 303.56C400.272 303.56 402.672 305.27 403.092 308.57H391.902C392.292 305.63 394.542 303.56 397.692 303.56ZM415.792 303.92V302H411.472V297.8L409.492 298.4V302H406.342V303.92H409.492V313.01C409.492 316.61 411.742 317.6 415.792 317V315.26C412.882 315.38 411.472 315.59 411.472 313.01V303.92H415.792ZM431.084 302V304.94C429.824 302.93 427.694 301.64 425.024 301.64C420.794 301.64 417.284 305.06 417.284 309.5C417.284 313.94 420.794 317.36 425.024 317.36C427.694 317.36 429.824 316.07 431.084 314.06V317H433.064V302H431.084ZM425.174 315.44C421.844 315.44 419.264 312.83 419.264 309.5C419.264 306.17 421.844 303.56 425.174 303.56C428.504 303.56 431.084 306.17 431.084 309.5C431.084 312.83 428.504 315.44 425.174 315.44ZM438.246 298.82C439.056 298.82 439.686 298.16 439.686 297.38C439.686 296.6 439.056 295.94 438.246 295.94C437.436 295.94 436.806 296.6 436.806 297.38C436.806 298.16 437.436 298.82 438.246 298.82ZM437.256 317H439.236V302H437.256V317ZM443.438 317H445.418V295.1H443.438V317ZM451.18 305.93C451.18 304.31 452.77 303.56 454.33 303.56C455.77 303.56 457.3 304.13 457.93 305.66L459.58 304.7C458.71 302.84 456.79 301.64 454.33 301.64C451.33 301.64 449.2 303.53 449.2 305.93C449.2 311.45 457.96 309.32 457.96 313.04C457.96 314.81 456.28 315.44 454.51 315.44C452.5 315.44 450.94 314.45 450.4 312.92L448.72 313.91C449.47 315.83 451.51 317.36 454.51 317.36C457.72 317.36 459.94 315.59 459.94 313.04C459.94 307.52 451.18 309.65 451.18 305.93ZM463.843 311.3H465.343L465.793 302V296H463.393V302L463.843 311.3ZM464.593 317.3C465.523 317.3 466.243 316.58 466.243 315.65C466.243 314.72 465.523 314 464.593 314C463.663 314 462.943 314.72 462.943 315.65C462.943 316.58 463.663 317.3 464.593 317.3Z" fill="white"/>
</g>
<defs>
<clipPath id="clip0">
<rect width="720" height="500" fill="white"/>
</clipPath>
</defs>
</svg>
